X:1
T:G Major Samuel Babcock, 1795
T:John Newton, 1759       55. 55. 65. 65.
T:Stowe
T:Transcribed from The Middlesex Harmony, 1795.
%%score [ 1 2 3 ]
L:1/8
Q:1/4=70
M:3/8
K:G
V:1 treble nm="Tr." snm="Tr."
V:2 treble-8 nm="T." snm="T."
V:3 bass nm="B." snm="B."
V:1
 B | GAB | BA B/d/ | GGc | B2 d | gdB | AGG | BAA | A2 B | AA B/c/ | dde | AGA | B2 B | cde | %14
w: 1.~The|birds with- out|barn * Or *|store- house are|fed; From|them let us|learn * To|trust for our|bread; His|saints, what is *|fit- ting, Shall|ne'er be de-|nied, So|long as 'tis|
w: 2.~Though|trou- bles as-|sail * And *|dan- gers af-|fright, Though|friends should all|fail * And|foes all u-|nite; Yet|one thing se- *|cures us, What-|ev- er be-|tide, The|scrip- ture as-|
 d e/f/g | GGc | B2 B | cd e/f/ | gdB | AGc | B3 |] %21
w: writ- ten, * The|Lord will pro-|vide. So|long as 'tis *|writ- ten, The|Lord will pro-|vide.|
w: sures us, * The|Lord will pro-|vide. The|scrip- ture as- *|sures us, The|Lord will pro-|vide.|
V:2
 G | BAG | d2 B | cBA | G2 A | BBd | c2 B/d/ | gfe | d2 B | ce d/c/ | BAG | ddd | d2 d | edc | %14
w: 3.~We|may, like the|ships, By|tem- pest be|tossed On|pe- ri- lous|deeps, But *|can- not be|lost. Though|Sa- tan en- *|ra- ges The|wind and the|tide, The|pro- mise en-|
w: 4.~His|call we o-|bey Like|A- bram of|old, Not|kno- wing our|way, But *|faith makes us|bold; For|though we are *|stran- gers We|have a good|Guide, And|trust in all|
 Bcd | def | g2 d | edc | BAG | cBA | G3 |] %21
w: ga- ges, The|Lord will pro-|vide. The|pro- mise en-|ga- ges, The|Lord will pro-|vide.|
w: dan- gers The|Lord will pro-|vide. And|trust in all|dan- gers The|Lord will pro-|vide.|
V:3
 G, | G,F,E, | D,2 G, | E,C,D, | G,,2 D, | G,,G,,G,, | C,2 G, | G,G,A, | D,2 G, | A,A,B, | G,F,E, | %11
 D,D,D, | G,2 G, | CB,A, | B,A,G, | %15
"^5. When Satan appears\nTo stop up our path,\nAnd fill us with fears,\nWe triumph by faith;\nHe cannot take from us,\nThough oft he has tried,\nThis heart–cheering promise,\nThe Lord will provide." B,CD | %16
"^6. He tells us we’re weak,\nOur hope is in vain,\nThe good that we seek\nWe ne’er shall obtain,\nBut when such suggestions\nOur spirits have plied,\nThis answers all questions,\nThe Lord will provide." G,2 G, | %17
 CB,A, | %18
"^7.No strength of our own,\nOr goodness we claim,\nYet since we have known\nThe Savior’s great name;\nIn this our strong tower\nFor safety we hide,\nThe Lord is our power,\nThe Lord will provide." G,F,E, | %19
"^8. When life sinks apace\nAnd death is in view,\nThis word of his grace\nShall comfort us through:\nNo fearing or doubting\nWith Christ on our side,\nWe hope to die shouting,\nThe Lord will provide." C,C,D, | %20
 G,,3 |] %21

